svgs/recycle.svg

<svg xmlns="http://www.w3.org/2000/svg" viewBox="0 0 192 192"><path d="M93.171 174.154c-2.191-1.015-7.551-5.446-11.912-9.846l-7.93-8-3.271 3.146-3.271 3.146v-27.061h26.021l-2.105 2.933c-1.158 1.614-2.582 3.227-3.164 3.584-.603.37 4.822 6.496 12.618 14.246 8.793 8.742 13.409 14.025 12.929 14.796-1.219 1.957-8.697 4.902-12.448 4.902-1.917 0-5.277-.831-7.467-1.846Zm20.704-19.075-9.163-9.167 8.665-9.174c4.766-5.046 9.002-9.158 9.413-9.138.41.019.746 2.036.746 4.481v4.446h39.089l-.593 3.628c-.784 4.791-5.212 10.168-10.639 12.919-3.81 1.932-5.915 2.223-16.066 2.223h-11.682l-.303 4.475-.304 4.475Zm-65.506 5.492c-9.083-4.751-11.399-9.864-11.428-25.225l-.022-11.554-4.537-.301-4.537-.301 8.603-9.139c4.731-5.026 9.116-9.138 9.744-9.138 1.259 0 18.604 16.79 18.604 18.009 0 .419-2.016.762-4.48.762h-4.48v38.528l-2.24-.039c-1.232-.022-3.585-.743-5.227-1.602Zm88.11-50.418V96.622l3.505 3.371 3.505 3.371 13.838-13.705 13.838-13.705 2.042 3.333c2.732 4.457 3.528 10.487 2.086 15.799-.914 3.367-3.083 6.285-9.545 12.837-4.599 4.664-8.362 8.871-8.362 9.349 0 .479 1.204 2.117 2.676 3.641l2.675 2.771h-26.258ZM18.055 111.93c-2.255-4.387-2.749-12.95-1.008-17.493.569-1.486 4.825-6.544 9.457-11.242l8.422-8.54-2.986-2.838c-1.642-1.562-2.985-3.2-2.985-3.642 0-.442 6.272-.803 13.938-.803h13.938v29.037l-3.458-3.326-3.458-3.325-5.751 5.313c-3.163 2.923-9.246 8.667-13.517 12.765-4.271 4.097-8.391 7.589-9.157 7.76-.795.176-2.267-1.394-3.435-3.666Zm118.424-33.196-9.419-9.386h9.419V30.039l3.424.766c5.091 1.14 10.123 4.589 12.704 8.708 2.028 3.235 2.33 5.151 2.636 16.695l.345 13.039 4.413.298 4.414.297-9.258 9.139-9.258 9.138ZM68.778 61.046v-4.832l-10.484.672c-5.767.37-14.551.369-19.52-.004l-9.035-.677.563-3.446c.853-5.211 4.933-10.566 9.853-12.929 3.714-1.784 6.166-2.096 16.493-2.096h12.13v-10.36L78.479 37l9.701 9.626-9.701 9.625-9.701 9.626Zm30.18-8.3c1.471-1.524 2.675-3.197 2.675-3.718 0-.522-6.015-6.905-13.368-14.186-13.284-13.155-13.354-13.248-11.2-14.894C79.882 17.796 85.251 16 88.871 16c5.26 0 10.199 2.973 18.471 11.117l8.197 8.072 3.501-3.367 3.501-3.367v27.062H96.283Z"/></svg>

<svg
    xmlns="http://www.w3.org/2000/svg"
    viewBox="0 0 192 192"
    id="vector">
    <g id="group">
        <path
            id="path_6"
            d="M 93.171 174.154 C 90.98 173.139 85.62 168.708 81.259 164.308 L 73.329 156.308 L 70.058 159.454 L 66.787 162.6 L 66.787 135.539 L 92.808 135.539 L 90.703 138.472 C 89.545 140.086 88.121 141.699 87.539 142.056 C 86.936 142.426 92.361 148.552 100.157 156.302 C 108.95 165.044 113.566 170.327 113.086 171.098 C 111.867 173.055 104.389 176 100.638 176 C 98.721 176 95.361 175.169 93.171 174.154 Z M 113.875 155.079 L 104.712 145.912 L 113.377 136.738 C 118.143 131.692 122.379 127.58 122.79 127.6 C 123.2 127.619 123.536 129.636 123.536 132.081 L 123.536 136.527 L 162.625 136.527 L 162.032 140.155 C 161.248 144.946 156.82 150.323 151.393 153.074 C 147.583 155.006 145.478 155.297 135.327 155.297 L 123.645 155.297 L 123.342 159.772 L 123.038 164.247 Z M 48.369 160.571 C 39.286 155.82 36.97 150.707 36.941 135.346 L 36.919 123.792 L 32.382 123.491 L 27.845 123.19 L 36.448 114.051 C 41.179 109.025 45.564 104.913 46.192 104.913 C 47.451 104.913 64.796 121.703 64.796 122.922 C 64.796 123.341 62.78 123.684 60.316 123.684 L 55.836 123.684 L 55.836 162.212 L 53.596 162.173 C 52.364 162.151 50.011 161.43 48.369 160.571 Z M 136.479 110.153 L 136.479 96.622 L 139.984 99.993 L 143.489 103.364 L 157.327 89.659 L 171.165 75.954 L 173.207 79.287 C 175.939 83.744 176.735 89.774 175.293 95.086 C 174.379 98.453 172.21 101.371 165.748 107.923 C 161.149 112.587 157.386 116.794 157.386 117.272 C 157.386 117.751 158.59 119.389 160.062 120.913 L 162.737 123.684 L 136.479 123.684 Z M 18.055 111.93 C 15.8 107.543 15.306 98.98 17.047 94.437 C 17.616 92.951 21.872 87.893 26.504 83.195 L 34.926 74.655 L 31.94 71.817 C 30.298 70.255 28.955 68.617 28.955 68.175 C 28.955 67.733 35.227 67.372 42.893 67.372 L 56.831 67.372 L 56.831 96.409 L 53.373 93.083 L 49.915 89.758 L 44.164 95.071 C 41.001 97.994 34.918 103.738 30.647 107.836 C 26.376 111.933 22.256 115.425 21.49 115.596 C 20.695 115.772 19.223 114.202 18.055 111.93 Z M 136.479 78.734 L 127.06 69.348 L 136.479 69.348 L 136.479 30.039 L 139.903 30.805 C 144.994 31.945 150.026 35.394 152.607 39.513 C 154.635 42.748 154.937 44.664 155.243 56.208 L 155.588 69.247 L 160.001 69.545 L 164.415 69.842 L 155.157 78.981 L 145.899 88.119 Z M 68.778 61.046 L 68.778 56.214 L 58.294 56.886 C 52.527 57.256 43.743 57.255 38.774 56.882 L 29.739 56.205 L 30.302 52.759 C 31.155 47.548 35.235 42.193 40.155 39.83 C 43.869 38.046 46.321 37.734 56.648 37.734 L 68.778 37.734 L 68.778 27.374 L 78.479 37 L 88.18 46.626 L 78.479 56.251 L 68.778 65.877 Z M 98.958 52.746 C 100.429 51.222 101.633 49.549 101.633 49.028 C 101.633 48.506 95.618 42.123 88.265 34.842 C 74.981 21.687 74.911 21.594 77.065 19.948 C 79.882 17.796 85.251 16 88.871 16 C 94.131 16 99.07 18.973 107.342 27.117 L 115.539 35.189 L 119.04 31.822 L 122.541 28.455 L 122.541 55.517 L 96.283 55.517 Z"
            fill="#000000"
            stroke-width="12"/>
    </g>
</svg>
